X:1
T:G minor Daniel Belknap, 1797
T:Philip Doddridge, 1755 (Hymn 41)  66. 66. 44. 44.
T:Lynn
T:Transcribed from The Harmonist's Companion, 1797.
%%score [ 1 2 3 4 ]
L:1/8
M:4/4
K:G
V:1 treble nm="Treble" snm="Tr"
V:2 treble nm="Counter" snm="C"
V:3 treble-8 nm="Tenor" snm="T"
V:4 bass nm="Bass" snm="B"
V:1
 B2 | G3 A B2 e2 | d4 z2 d2 | B2 G2 AG F2 | G4 z2 B2 | d>c BA B2 ce | d4 z2 d2 | cA Be d2 d2 | %8
w: 1.~Loud|to the Prince of|heaven Your|cheer- ful voi- * ces|raise; To|him * * your vows be *|given, And|fill * his * courts with|
 !fermata!B4 z2 d2 | B2 B2 B2 B2 | AB c2 (d4 | d2) d2 d>c BA | B2 e2 dB d2 | B8 |] %14
w: praise; With|con- scious worth All|clad * in arms,|* All bright * * in|charms He sal- * lies|forth.|
V:2
 D2 | D2 EF G2 G2 | F4 z2 F2 | G2 G2 E2 D2 | D4 z2 G2 | (G2 F)C D2 EG | F4 z2 G2 | G2 E2 [DF]2 F2 | %8
w: 2.~Gird|on thy con- quer- ing|sword, A-|scend thy shi- ning|car, And|march, * al- migh- ty *|Lord, To|wage thy ho- ly|
 !fermata!G4 z2 D2 | G2 G2 G2 G2 | E2 G2 F4 | z2 F2 G3 C | D2 E2 F2 F2 | G8 |] %14
w: war; Be-|fore his wheels, in|glad sur- prise,|Ye val- leys|rise, And sink, ye|hills.|
V:3
 G2 | B3 A G2 cB | A4 z2 A2 | B2 d2 cB A2 | G4 z2 d2 | B>c de d2 cB | A4 z2 B2 | e2 g2 B2 A2 | %8
w: 3.~Fair|truth, and smi- ling *|love And|in- jured right- * eous-|ness In|Thy * * re- ti- nue *|move, And|seek from thee re-|
 !fermata!G4 z2 G2 | d2 d2 d2 B2 | ed cB A4 | z2 d2 B>c de | d2 g2 B2 A2 | G8 |] %14
w: dress; Thou|in their cause Shalt|pros- * perous * ride,|And far * * and|wide Dis- pense thy|laws.|
V:4
 G,2 | G,3 F, E,2 C,2 | D,6 D,2 | G,2 G,2 C,2 D,2 | [G,,G,]6 G,2 | G,>A, B,C B,2 A,G, | D,6 G,2 | %7
w: 4.~Be-|fore thine aw- ful|face Mil-|lions of foes shall|fall; The|cap- * * tives of thy *|grace, That|
w: 5.~Here|to my wil- ling|soul Bend|thy tri- um- phant|way; Here|eve- * * ry foe con- *|trol, And|
 C2 B,C D2 D,2 | !fermata![G,,G,]4 z2 G,2 | G,2 G,2 G,2 G,2 | CB, A,G, D,4- | D,2 D,2 G,>A, B,C | %12
w: grace which * con- quers|all: The|world shall know, Great|King * of * kings,|* What won- * * drous|
w: all thy * power dis-|play; My|heart, thy throne, Blest|Je- * sus, * see|* Bows low * * to|
 B,2 C2 D2 D,2 | G,,8 |] %14
w: things Thine arm can|do.|
w: thee, To thee a-|lone.|

